src/assets/svg/icons/fa/nuevos/classic/duotone/meter-fire classic duotone.svg

<svg xmlns="http://www.w3.org/2000/svg" viewBox="0 0 640 512"><!--! Font Awesome Pro 6.4.0 by @fontawesome - https://fontawesome.com License - https://fontawesome.com/license (Commercial License) Copyright 2023 Fonticons, Inc. --><defs><style>.fa-secondary{opacity:.4}</style></defs><path class="fa-primary" d="M443.7 159.9c3.5 0 7 1.3 9.8 3.8c19.7 17.8 38.2 37 55.5 57.7c7.9-9.9 16.8-20.7 26.5-29.5c5.6-5.1 14.4-5.1 20 0c24.7 22.7 45.6 52.7 60.4 81.1c14.5 28 24.2 58.8 24.2 79c0 87.8-71.3 159.8-160 159.8c-89.7 0-160-72.1-160-159.8c0-26.4 12.7-60.7 32.4-92.6c20-32.4 48.1-66.1 81.4-95.8c2.8-2.5 6.4-3.8 10-3.7zm37.3 288c18 0 34-5 49-15c30-21 38-63 20-96c-2-4-4-8-7-12l-36 42s-58-74-62-79c-30 37-45 58-45 82c0 49 36 78 81 78z"/><path class="fa-secondary" d="M351.1 493.7C321.7 505.5 289.6 512 256 512C114.6 512 0 397.4 0 256S114.6 0 256 0C361.7 0 452.5 64.1 491.5 155.5c-5.4-5.3-10.9-10.4-16.6-15.5c-17.7-16-44.7-16-62.5-.1c-9.9 8.9-19.4 18.1-28.5 27.5V160c0-17.7-14.3-32-32-32s-32 14.3-32 32v32c0 13.2 7.9 24.5 19.3 29.4c-5 7.1-9.8 14.2-14.1 21.3C304.3 276.5 288 314.9 288 350.1c0 56.1 24.1 107.8 63.1 143.7zM160 128c-17.7 0-32 14.3-32 32v32c0 17.7 14.3 32 32 32s32-14.3 32-32V160c0-17.7-14.3-32-32-32zm96 0c-17.7 0-32 14.3-32 32v32c0 17.7 14.3 32 32 32s32-14.3 32-32V160c0-17.7-14.3-32-32-32z"/></svg>

<svg xmlns="http://www.w3.org/2000/svg" viewBox="0 0 640 512"><defs><style>.fa-secondary{opacity:.4}</style></defs><path class="fa-primary" d="M433.8 163.6C439.4 158.6 447.1 158.6 453.5 163.6C473.3 181.4 491.8 200.6 509 221.3C516.9 211.5 525.8 200.6 535.5 191.8C541.1 186.7 549.9 186.7 555.5 191.9C580.2 214.6 601.1 244.5 615.8 273C630.4 301.1 640 329.8 640 349.9C640 437.8 568.7 511.9 480 511.9C390.3 511.9 320 437.7 320 349.9C320 323.5 332.7 291.3 352.4 259.4C372.4 227 400.5 193.3 433.8 163.6V163.6zM480.1 447.9C499 447.9 515 442.9 530 432.9C560 411.9 568 369.9 550 336.9C548 332.9 546 328.9 543 324.9L507 366.9C507 366.9 448.1 292.9 444.1 287.9C415 324.9 400 345.9 400 369.9C400 418.9 436 447.9 480.1 447.9z"/><path class="fa-secondary" d="M351.1 493.7C321.7 505.5 289.6 512 256 512C114.6 512 0 397.4 0 256C0 114.6 114.6 0 256 0C361.7 0 452.5 64.07 491.5 155.5C486.1 150.2 480.6 145.1 474.1 139.1C457.3 124 430.2 123.1 412.5 139.9C402.5 148.7 393 157.9 384 167.4V160C384 142.3 369.7 128 352 128C334.3 128 320 142.3 320 160V192C320 205.2 327.9 216.5 339.3 221.4C334.3 228.5 329.5 235.6 325.2 242.7C304.3 276.5 288 314.9 288 350.1C288 406.2 312.1 457.9 351.1 493.7V493.7zM128 160V192C128 209.7 142.3 224 160 224C177.7 224 192 209.7 192 192V160C192 142.3 177.7 128 160 128C142.3 128 128 142.3 128 160zM224 160V192C224 209.7 238.3 224 256 224C273.7 224 288 209.7 288 192V160C288 142.3 273.7 128 256 128C238.3 128 224 142.3 224 160z"/></svg>
